X: 5989
T: Canadian, The
R: waltz
M: 3/4
K: Gmajor
|:(3Bcd|e2 d2 B2|G3 ABG|E2 G2 E2|D4 (3DEF|
G2 B2 e2|d2 B2 G2|A3 ^GAB|A4 (3Bcd|
e2 d2 B2|G3 ABG|E2 G2 g2|e3 fge|
d2 B2 G2|A2 E2 F2|G2 GF GA|1 G3A:|2 G4||
|:FE|DG BG BG|DG BG BG|DF AF AF|DF AF AF|
DG BG BG|DG BG BG|E2 G2 g2|e3 fge|
d2 B2 G2|A2 E2 F2|G2 GF GA|1 G4:|2 G3A||

